X:2
T:Jacksons Marrai(?). JMP.002
M:6/8
L:1/8
Q:3/8=120
C:â€5â€³
S:John Miller MS. Perth, 1799.(for the fife)
O:Scotland
A:Perth
N:The name â€˜David R â€˜ or â€˜Daniel Râ€™ is written at the bottom of the page
N:1 â€“ Two notes here appear to have been scratched out.. This tune is 1st
N:cousin to some Irish single jig â€¦
H:1799
Z:vmp.C. Graebe
K:G Major
â€œ_Key D in MSâ€B | A2D FED | A2G ABc | G2E c2E | G2E c2E |!
A2D FED | A2G ABc | G2E c2E | DED D2 :|!
|:d | dcd ABc | d2f ecA | cBc E2 c | E2 c cBA |!
ABc d2 B | c2A B2G | A2F G2E |â€1â€³ DED D2 ğŸ˜

